src/icons/console.svg

<svg width="16" height="16" viewBox="0 0 16 16" fill="none" xmlns="http://www.w3.org/2000/svg">
<path d="M4 4V2.5H2.5C2.36739 2.5 2.24021 2.55268 2.14645 2.64645C2.05268 2.74021 2 2.86739 2 3V4H4ZM14 4V3C14 2.86739 13.9473 2.74021 13.8536 2.64645C13.7598 2.55268 13.6326 2.5 13.5 2.5H5V4H14Z" fill="#89DDFF"/>
<path fill-rule="evenodd" clip-rule="evenodd" d="M2 5V13C2 13.1326 2.05268 13.2598 2.14645 13.3536C2.24021 13.4473 2.36739 13.5 2.5 13.5H13.5C13.6326 13.5 13.7598 13.4473 13.8536 13.3536C13.9473 13.2598 14 13.1326 14 13V5H2ZM6.354 9.354L4.5 11.207L3.793 10.5L5.293 9L3.793 7.5L4.5 6.793L6.354 8.646C6.44774 8.73976 6.50039 8.86692 6.50039 8.9995C6.50039 9.13208 6.44774 9.25924 6.354 9.353M7.5 11H10.5V10H7.5V11Z" fill="#FF9CAC"/>
</svg>

<svg xmlns="http://www.w3.org/2000/svg" width="16" height="16" fill="none"><path fill="#89DDFF" d="M4 4V2.5H2.5A.5.5 0 0 0 2 3v1zM14 4V3a.5.5 0 0 0-.5-.5H5V4z"/><path fill="#FF9CAC" fill-rule="evenodd" d="M2 5v8a.5.5 0 0 0 .5.5h11a.5.5 0 0 0 .5-.5V5zm4.354 4.354L4.5 11.207l-.707-.707 1.5-1.5-1.5-1.5.707-.707 1.854 1.853a.5.5 0 0 1 0 .707M7.5 11h3v-1h-3z" clip-rule="evenodd"/></svg>
